X:87 
T:Queen Mary's Lamentation 
B:OFPC4.167
C:file ID: ofpc.4/087queen
Y:"Scotch"
Q:80
M:3/4
L:1/8
K:G
GB|d4 BG|A2 B2 c2|c2 B2 G2|d4 ed|dB BG A2|G4 :| %6 measures
de|"7"=f4 dB|A2 A3B/c/|c2 B2 GB|d4 ed|
"11"dB BG A2|G4 de|=f4 dB|A2 A2-AB/c/|
"15"c2 B2 G>B|d4 BG|D2 c3B|B2 A2 GB|
"19"d4 BG|e2 f2 g2|Hg3 Hf3|d4 ed|dB BG A2|G6 |] %18 measures

